X: 24696
T: Maclotte De Steinbach
R: jig
M: 6/8
K: Eminor
E2F GFE|GFE F2F|E2F GFG|BAG FGF|
E2F GFE|GFE F2F|E2F GFG|AGF E3:|
G2G G2A|BAB A2B|A2B F2G|AGA B3|
A2F GFE|GFE F2F|E2F GFG|AGF E3:|

